usr/share/icons/biglinux-icons-material/22/places/user-trash.svg

<svg width="22" height="22" version="1.1" xmlns="http://www.w3.org/2000/svg">
 <defs>
  <style id="current-color-scheme" type="text/css">.ColorScheme-Text { color:#363636; }</style>
 </defs>
 <path class="ColorScheme-Text" d="m9 3c-0.554 0-1 0.446-1 1v1h-4v1h1v12c0 0.554 0.446 1 1 1h9c0.554 0 1-0.446 1-1v-12h1v-1h-4v-1c0-0.554-0.446-1-1-1zm0 1h3v1h-3zm-3 2h9v12h-9zm2 2v8h1v-8zm2 0v8h1v-8zm2 0v8h1v-8z" fill="currentColor"/>
</svg>

<svg xmlns="http://www.w3.org/2000/svg" width="22" height="22"><path fill="currentColor" d="M9 3c-.554 0-1 .446-1 1v1H4v1h1v12c0 .554.446 1 1 1h9c.554 0 1-.446 1-1V6h1V5h-4V4c0-.554-.446-1-1-1zm0 1h3v1H9zM6 6h9v12H6zm2 2v8h1V8zm2 0v8h1V8zm2 0v8h1V8z" style="color:#dedede"/></svg>
